svg/device_configuration.svg

<svg width="24" height="24" viewBox="0 0 24 24"  xmlns="http://www.w3.org/2000/svg">
<path fill-rule="evenodd" clip-rule="evenodd" d="M12 19C12 15.1 15.1 12 19 12C19.7 12 20.4 12.1 21 12.3V5C21 3.9 20.1 3 19 3H5C3.9 3 3 3.9 3 5V19C3 20.1 3.9 21 5 21H12.3C12.1 20.4 12 19.7 12 19ZM5 8V5H19V8H5Z" />
<path d="M21.304 18.9781C20.6275 19.6547 19.6472 19.8342 18.8049 19.5373L16.4508 21.8914C16.3128 22.0295 16.0987 22.0295 15.9607 21.8914L14.9942 20.9249C14.8561 20.7868 14.8561 20.5728 14.9942 20.4348L17.3483 18.0806C17.0514 17.2384 17.2309 16.2581 17.9075 15.5816C18.6738 14.8153 19.8267 14.6841 20.7379 15.1742L19.1156 16.7966L20.089 17.77L21.7114 16.1476C22.2015 17.052 22.0703 18.2118 21.304 18.9781Z" />
</svg>

<svg width="24" height="24" viewBox="0 0 24 24" xmlns="http://www.w3.org/2000/svg"><path fill-rule="evenodd" clip-rule="evenodd" d="M12 19c0-3.9 3.1-7 7-7 .7 0 1.4.1 2 .3V5c0-1.1-.9-2-2-2H5c-1.1 0-2 .9-2 2v14c0 1.1.9 2 2 2h7.3c-.2-.6-.3-1.3-.3-2zM5 8V5h14v3H5z"/><path d="M21.304 18.978a2.401 2.401 0 0 1-2.5.56l-2.353 2.353a.342.342 0 0 1-.49 0l-.967-.966a.342.342 0 0 1 0-.49l2.354-2.354a2.401 2.401 0 0 1 .56-2.5 2.393 2.393 0 0 1 2.83-.407l-1.622 1.623.973.973 1.622-1.622c.49.904.36 2.064-.407 2.83z"/></svg>
